X: 10693
M: C|
L: 1/8
K: Bb
ud |\
ua |\
bfdf egce | dfBd cFFa | bfdf egce | dfce dBB |]
a |\
bfdf egce | dfBd cFFf | (gf)ga (bg)fe | dfce dB"_Fine."B |]


